X: 43603
T: Young William Plunkett
R: reel
M: 4/4
K: Gmajor
"G" D|"G" G2 GG g2 gf|"C" efed B2 Bd|"C" efge{f} edcB|"D" ABAG E2 E2|
"G" GABG g2 gf|"C" efed B2 cB|"D" A/B/cBA B2 AB|"G" GEDE G4||
"G" G2 AB G2 AB|{^c} d2 de dBAG|"G" G2 GG g2 gf|"C" efed B4|
{c} BABd{f} edef|"G" gfgd BABd|"C" efge dBAB|"G" GEDE G4||

